X: 1288
T: Kürdî Seyir
C: Erol Bingöl
O: Turkey
F: http://compmusic.upf.edu/node/140
N: kurdi--seyir--sofyan--1--erol_bingol
N: makam= kurdi
N: form= seyir
N: usul= sofyan = 4/4
M: 4/4
L: 1/16
K: C _B   
Q: 1/4=66
%%MIDI tuningsystem comma53
A6B2 c4 d4  | B4 c2B2 A8  | A3G A2B2 c4 d4  | \
w:   |   |   | 
c2d2 efed d8  | 
w:   | 
e2f2 e2f2 a4 g2f2  | e2f2 e2d2 c8  | \
w:   |   | 
d2f2 e2d2 c4 d2B2  | A8 B2c2 A4  | 
w:   |   | 
|


